remix/Finance/coins-line.svg

<svg viewBox="0 0 24 24" fill="currentColor" xmlns="http://www.w3.org/2000/svg"><path d="M14.0049 2.00275C18.4232 2.00275 22.0049 5.58447 22.0049 10.0027C22.0049 13.2474 20.0733 16.0408 17.2973 17.296C16.0422 20.0717 13.249 22.0027 10.0049 22.0027C5.5866 22.0027 2.00488 18.421 2.00488 14.0027C2.00488 10.7586 3.9359 7.96548 6.71122 6.71006C7.96681 3.93431 10.7603 2.00275 14.0049 2.00275ZM10.0049 8.00275C6.69117 8.00275 4.00488 10.689 4.00488 14.0027C4.00488 17.3165 6.69117 20.0027 10.0049 20.0027C13.3186 20.0027 16.0049 17.3165 16.0049 14.0027C16.0049 10.689 13.3186 8.00275 10.0049 8.00275ZM11.0049 9.00275V10.0027H13.0049V12.0027H9.00488C8.72874 12.0027 8.50488 12.2266 8.50488 12.5027C8.50488 12.7482 8.68176 12.9524 8.91501 12.9947L9.00488 13.0027H11.0049C12.3856 13.0027 13.5049 14.122 13.5049 15.5027C13.5049 16.8835 12.3856 18.0027 11.0049 18.0027V19.0027H9.00488V18.0027H7.00488V16.0027H11.0049C11.281 16.0027 11.5049 15.7789 11.5049 15.5027C11.5049 15.2573 11.328 15.0531 11.0948 15.0108L11.0049 15.0027H9.00488C7.62417 15.0027 6.50488 13.8835 6.50488 12.5027C6.50488 11.122 7.62417 10.0027 9.00488 10.0027V9.00275H11.0049ZM14.0049 4.00275C12.2214 4.00275 10.6196 4.78091 9.52064 6.01623C9.68133 6.00758 9.84254 6.00275 10.0049 6.00275C14.4232 6.00275 18.0049 9.58447 18.0049 14.0027C18.0049 14.1654 18 14.327 17.9905 14.4872C19.2265 13.3885 20.0049 11.7865 20.0049 10.0027C20.0049 6.68904 17.3186 4.00275 14.0049 4.00275Z"/></svg>

<svg viewBox="0 0 24 24" xmlns="http://www.w3.org/2000/svg"><path fill="none" d="M0 0h24v24H0Z"/><path d="M14 2v-.001c4.41-.01 8 3.57 8 7.99 0 3.14-1.85 6-4.72 7.29v0c-1.83 4.02-6.57 5.81-10.586 3.99 -4.03-1.83-5.82-6.57-4-10.586 .8-1.78 2.22-3.2 3.99-4v0c1.29-2.87 4.14-4.71 7.29-4.71Zm-4 6v0c-3.32 0-6 2.68-6 6 0 3.31 2.68 6 6 6v0c3.31 0 6-2.69 6-6 0-3.32-2.69-6-6-6Zm1 1v1h2v2H9v0c-.28-.01-.51.22-.51.49 -.01.24.17.44.41.49l.09 0h2v0c1.38 0 2.5 1.11 2.5 2.5 0 1.38-1.12 2.5-2.5 2.5v1h-2v-1h-2v-2h4v0c.27 0 .5-.23.5-.5 0-.25-.18-.45-.42-.5l-.09-.01h-2v0c-1.39 0-2.5-1.12-2.5-2.5 0-1.39 1.11-2.5 2.5-2.5v-1h2Zm3-5h-.001c-1.72-.01-3.35.73-4.484 2.01v0c4.41-.27 8.2 3.09 8.47 7.5 .01.32.01.64-.01.97v0c2.47-2.21 2.69-6 .49-8.48 -1.14-1.29-2.77-2.02-4.49-2.02Z"/></svg>
